X:1
T:Violin Caprice No. 8 in E-Flat Major
T:Violin Caprice No. 8 in E-Flat Major
T:Op. 1, No. 8
T:Niccolò Paganini
C:Niccolò Paganini
%%score ( 1 2 3 )
L:1/8
Q:1/4=90
M:4/4
K:Eb
V:1 treble nm="Violin" snm="Vln."
V:2 treble 
V:3 treble 
V:1
"^Maestoso"!ff!"^sul G e D" !>!e4 !>!T=B4 | !>!c6 z3/2 !>!_B/ | !>!=A4 !>!T_A4 | !>![G,G]6 z2 | %4
 !>!A,/!p!B/c/d/ e/f/g/a/!8va(! b/c'/d'/e'/ f'/g'/a'/b'/!8va)! | %5
!f! !>!G,/!p!e/f/g/ a/b/c'/d'/!8va(! e'/f'/g'/a'/ b'/c''/d''/e''/!8va)! | %6
!f! [A,Eca]2 z2 [B,Fdb]2 !fermata!z2 |"^dolce"!mp! e8 | d8 | _d8 | c8 | %11
 (f/g/a/g/ f/g/a/f/ g/f/e/d/ e/d/c/B/) | (f/g/a/g/ f/g/a/f/ g/f/e/d/ e/d/c/B/) | =A8 | %14
 [DB]/.B,/.C/.D/ .E/.F/.G/.=A/ .B/.c/.d/.e/ .f/.g/.=a/.b/ | =a8 | %16
 (([db]/[fd']/) ([c=a]/[ec']/) ([B=g]/[db]/) ([=Af]/[ca]/)) (([Ge]/[Bg]/) ([Fd]/[Af]/) ([Ec]/[Ge]/) ([DB]/[Fd]/)) | %17
 (([EB]/e/c/B/) ([=EB]/_d/c/B/) ([FB]/=d/c/B/) ([F=A]/e/c/A/)) | %18
!f! [B,D]/.[Bd]/.[ce]/.[df]/ .[eg]/.[f=a]/.[gb]/.[ac']/ .[bd']/.[ac']/.[gb]/.[^fa]/ .[gb]/.[fa]/.[gb]/.[fa]/ | %19
 .[=ac']/.[gb]/.[^fa]/.[gb]/ .[=fa]/.[eg]/.[df]/.[ce]/ .[Bd]/.[ce]/.[^c=e]/.[df]/ .[df]/.[=c_e]/.[Bd]/.[=Ac]/ | %20
 [Bd]/!pp![B,D]/[CE]/[DF]/ ([EG]/[F=A]/[GB]/[Ac]/ [Bd]/[Ac]/[GB]/[^FA]/ [GB]/[FA]/[GB]/[FA]/ | %21
 [=Ac]/[GB]/[^FA]/[GB]/) ([=FA]/[EG]/[DF]/[CE]/ [B,D]/[CE]/[^C=E]/[DF]/ ([DF]/[=C_E]/[B,D]/[=A,E]/)) | %22
 (!fermata![CE]4 [B,D]2) !fermata!z2 ::!f! !>!b4 !>!T^f4 | !>!g6 z3/2 !>!=f/ | !>!=e4 !>!T_e4 | %26
 !>![_A,_A]6 z2 | !>!A/!p!a/b/c'/!8va(! _d'/e'/f'/g'/ a'/b'/c''/_d''/ e''/f''/g''/a''/!8va)! | %28
!f! !>!E/!p!e/f/g/ a/b/c'/=d'/!8va(! e'/f'/g'/a'/ b'/c''/d''/e''/!8va)! | %29
!f! !>!F/!p!f/g/a/ b/c'/d'/=e'/!8va(! f'/g'/a'/b'/ c''/d''/=e''/f''/!8va)! | %30
!f! !>!C/!p!c/d/=e/ f/g/=a/=b/!8va(! c'/d'/=e'/f'/ g'/=a'/=b'/c''/!8va)! | %31
!f! _d4- [_Dd]/!p! ([FA]/[=EG]/[FA]/ [_GB]/[FA]/[_EG]/[DF]/) | %32
!f! a4- [Aa]/!p! ([ce]/[=Bd]/[ce]/ [df]/[ce]/[_Bd]/[Ac]/) | %33
!f! e4- [Ee]/!p! ([_GB]/[F=A]/[GB]/ [_Ac]/[GB]/[FA]/[EG]/) | %34
!f! b4- [Bb]/!p! ([df]/[^c=e]/[df]/ [_e_g]/[df]/[=ce]/[Bd]/) | %35
 (!>![e_g]/[df]/[eg]/[df]/ [eg]/[df]/[eg]/[_df]/ !>![=B^d]/[^A^c]/[Bd]/[Ac]/ x d) || %36
[K:E]"_dim." e/d/e/f/ e/d/e/d/ c4 | d/^^c/d/e/ d/c/d/^c/ B4 | %38
!f! e4- [Ee]/!p! ([GB]/[^^F^A]/[GB]/ [=Ac]/[GB]/[^FA]/[EG]/) | %39
!f! b4- [Bb]/!p! ([df]/[^^c^e]/[df]/ [=eg]/[df]/[^ce]/[Bd]/) | %40
!f! f4- [Ff]/!p! ([Ac]/[G^B]/[Ac]/ [=Bd]/[Ac]/[GB]/[FA]/) | %41
!f! c'4- [cc']/!p! ([^eg]/[d^^f]/[eg]/ [^fa]/[eg]/[df]/[ce]/) | x4 x2 x f | =g/f/g/a/ g/f/g/f/ e4 | %44
 (!>![^Af]/=g/f/e/ [B=d]/A/B/=A/ [Ge]/=f/e/d/ [A=c]/G/A/=G/) | %45
 (!>![^F=d]/_e/d/=c/ [=G_B]/F/G/=F/ [=Ec]/_d/c/B/ [F_A]/E/F/_E/) || %46
[K:Eb] ([DB]/c/B/A/ [EG]/D/E/D/) ([CA]/E/[B,G]/D/ [A,F]/C/[=A,E]/C/) | %47
 (!>![B,D]/[CE]/[DF]/[CE]/ [B,D]/).[^c=e]/.[df]/.[=c_e]/ .[Bd]/.[Ac]/.[GB]/.[FA]/ .[EG]/.[DF]/.[CE]/.[B,D]/ | %48
 E/F/_G/F/ E2 E/F/G/F/ E2 | %49
 (!>![B,D]/[CE]/[DF]/[CE]/ [B,D]/).[^c'=e']/.[d'f']/.[=c'_e']/ .[bd']/.[ac']/.[gb]/.[fa]/ .[eg]/.[df]/.[ce]/.[Bd]/ | %50
 e/f/_g/f/ e2 e/f/g/f/ (e2 | %51
 !>![Bd]/).[B,D]/.[DF]/.[^C=E]/ .[=C_E]/.[B,D]/.[DF]/.[^C=E]/ .[=C_E]/.[B,D]/.[FA]/.[=EG]/ .[_EG]/.[DF]/.[FA]/.[=EG]/ | %52
 .[_EG]/.[DF]/.[df]/.[ce]/"_cresc." .[Bd]/.[df]/.[fa]/.[eg]/ .[df]/.[ce]/.[Bd]/.[Ac]/ .[GB]/.[FA]/.[EG]/.[DF]/ | %53
!f! e4 T=B4 | %54
!f! !>!C/!p!.c/.d/.e/ .f/.g/.=a/.=b/!8va(! .c'/.d'/.e'/.f'/ .g'/.=a'/.=b'/.c''/!8va)! | %55
!f! [_A,Ec_a]2 z2 [B,Fdb]2 !fermata!z2 |!pp! =B8 | [=A,=A] z ([_g_g']2 [ee']) z [A,F]2 | %58
"^cresc." B<G b<g A<F a<f | %59
!f! [G,E]/ .[eg]/.[fa]/.[gb]/ .[ac']/.[bd']/.[c'e']/.[d'f']/ .[e'g']/.[d'f']/.[c'e']/.[=bd']/ .[c'e']/.[bd']/.[c'e']/.[bd']/ | %60
 .[d'f']/.[c'e']/.[=bd']/.[c'e']/ .[_bd']/.[ac']/.[gb]/.[fa]/ .[eg]/.[fa]/.[^f=a]/.[gb]/ .[gb]/.[=f_a]/.[eg]/.[df]/ | %61
 [eg]/!p! ([EG]/[FA]/[GB]/ [Ac]/[Bd]/[ce]/[df]/ [eg]/[df]/[ce]/[=Bd]/ [ce]/[Bd]/[ce]/[Bd]/) | %62
 ([df]/[ce]/[=Bd]/[ce]/ [_Bd]/[Ac]/[GB]/[FA]/ [EG]/[FA]/[^F=A]/[GB]/) ([GB]/[=F_A]/[EG]/[DF]/) | %63
!pp! G4 TF4 | [G,E]4 z4 |!f! B4 Td4 | [G,Ee]4 z4 :| %67
V:2
 E4 T=B,4 | C6 x3/2 _B,/ | =A,4 T_A,4 | x8 | x4!8va(! x4!8va)! | x4!8va(! x4!8va)! | x8 | x8 | x8 | %9
 x8 | x8 | x8 | x8 | x8 | x8 | x8 | x8 | x8 | x8 | x8 | x8 | x8 | x8 :: B4 T^F4 | G6 x3/2 =F/ | %25
 =E4 T_E4 | x8 | x2!8va(! x6!8va)! | x4!8va(! x4!8va)! | x4!8va(! x4!8va)! | x4!8va(! x4!8va)! | %31
 x8 | x8 | x8 | x8 | x8 ||[K:E] x8 | x8 | x8 | x8 | x8 | x8 | x8 | x8 | x8 | x8 ||[K:Eb] x8 | x8 | %48
 x8 | x8 | x8 | x8 | x8 | E4 !>!T=B,4 | x4!8va(! x4!8va)! | x8 | x8 | x8 | x8 | x8 | x8 | x8 | x8 | %63
 E4 B,4 | x8 | [EG]4 [B,F]4 | x8 :| %67
V:3
 x8 | x8 | x8 | x8 | x4!8va(! x4!8va)! | x4!8va(! x4!8va)! | x8 | %7
 (E/F/G/F/ E/F/G/F/ E/F/G/F/ E/F/G/E/) | (F/G/A/G/ F/G/A/G/ F/G/A/G/ F/G/A/F/) | %9
 (G/A/B/A/ G/A/B/A/ G/A/B/A/ G/A/B/G/) | (A/B/c/B/ A/B/c/B/ A/B/c/B/ A/B/c/A/) | !>!D4 !>!E4 | %12
 !>!D4 !>!E4 | (E/F/_G/F/ E/F/G/F/ G/F/E/c/ =A/G/F/E/) | x8 | %15
 (e/f/_g/f/ e/f/g/f/"_cresc." g/f/e/c'/ =a/g/f/e/) | x8 | x8 | x8 | x8 | x8 | x8 | x8 :: x8 | x8 | %25
 x8 | x8 | x2!8va(! x6!8va)! | x4!8va(! x4!8va)! | x4!8va(! x4!8va)! | x4!8va(! x4!8va)! | %31
 _D/E/F/E/ D/E/F/E/ x4 | A/B/c/B/ A/B/c/B/ x4 | E/F/_G/F/ E/F/G/F/ x4 | B/c/d/c/ B/c/d/c/ x4 | %35
 x4 x2 [=B^d]/[^A^c]/B/A/ ||[K:E] (G4 ^A/G/A/B/ A/G/A/G/) | (^^F4 G/F/G/A/ G/F/G/^F/) | %38
 E/F/G/F/ E/F/G/F/ x4 | B/c/d/c/ B/c/d/c/ x4 | F/G/A/G/ F/G/A/G/ x4 | c/d/^e/d/ c/d/e/d/ x4 | %42
 [fa]/[^eg]/[fa]/[eg]/ [fa]/[eg]/[fa]/[=eg]/ [=df]/[c^e]/[df]/[ce]/ [df]/[ce]/d/c/ | %43
 (B4 c/B/c/=d/ c/B/c/B/) | x8 | x8 ||[K:Eb] x8 | x8 | =A,2 A,/C/_C/B,/ A,2 A,/=C/B,/A,/ | x8 | %50
 (=A2 A/c/_c/B/ A2 A/=c/B/A/) | x8 | x8 | x8 | x4!8va(! x4!8va)! | x8 | %56
 (=B,/^C/^D/C/ B,/C/D/C/ B,/C/D/C/ B,/C/D/B,/) | x8 | B,E/B,/ Be/B/ B,D/B,/ Bd/B/ | x8 | x8 | x8 | %62
 x8 | x8 | x8 | x8 | x8 :| %67

